azure-patterns/circle-inside-circles.svg

<svg xmlns="http://www.w3.org/2000/svg" viewBox="0 0 48 48"><path d="M5.053 10.105A5.053 5.053 0 105.053 0a5.053 5.053 0 000 10.105zm12.631 0a5.053 5.053 0 100-10.105 5.053 5.053 0 000 10.105zm12.631 0a5.053 5.053 0 100-10.105 5.053 5.053 0 000 10.105zm12.633 0a5.053 5.053 0 100-10.105 5.053 5.053 0 000 10.105zM5.053 22.736a5.053 5.053 0 100-10.105 5.053 5.053 0 000 10.105zm0 12.633a5.053 5.053 0 100-10.105 5.053 5.053 0 000 10.105zm0 12.631a5.053 5.053 0 100-10.105 5.053 5.053 0 000 10.105zm12.631 0a5.053 5.053 0 100-10.106 5.053 5.053 0 000 10.106zm12.631 0a5.053 5.053 0 100-10.105 5.053 5.053 0 000 10.105zm12.633 0a5.053 5.053 0 100-10.105 5.053 5.053 0 000 10.105zm0-12.631a5.053 5.053 0 100-10.105 5.053 5.053 0 000 10.105zm0-12.633a5.053 5.053 0 100-10.105 5.053 5.053 0 000 10.105z" fill="#0078D4"/><path d="M24 35.368c6.279 0 11.369-5.09 11.369-11.369 0-6.278-5.09-11.368-11.369-11.368-6.278 0-11.368 5.09-11.368 11.368 0 6.279 5.09 11.369 11.368 11.369z" fill="#50E6FF"/></svg>

<svg xmlns="http://www.w3.org/2000/svg" viewBox="0 0 48 48"><path d="M5.053 10.105A5.053 5.053 0 105.053 0a5.053 5.053 0 000 10.105zM17.684 10.105a5.053 5.053 0 100-10.105 5.053 5.053 0 000 10.105zM30.315 10.105a5.053 5.053 0 100-10.105 5.053 5.053 0 000 10.105zM42.948 10.105a5.053 5.053 0 100-10.105 5.053 5.053 0 000 10.105zM5.053 22.736a5.053 5.053 0 100-10.105 5.053 5.053 0 000 10.105zM5.053 35.369a5.053 5.053 0 100-10.105 5.053 5.053 0 000 10.105zM5.053 48a5.053 5.053 0 100-10.105 5.053 5.053 0 000 10.105zM17.684 48a5.053 5.053 0 100-10.106 5.053 5.053 0 000 10.106zM30.315 48a5.053 5.053 0 100-10.105 5.053 5.053 0 000 10.105zM42.948 48a5.053 5.053 0 100-10.105 5.053 5.053 0 000 10.105zM42.948 35.369a5.053 5.053 0 100-10.105 5.053 5.053 0 000 10.105zM42.948 22.736a5.053 5.053 0 100-10.105 5.053 5.053 0 000 10.105z" fill="#0078D4"/><path d="M24 35.368c6.279 0 11.369-5.09 11.369-11.369 0-6.278-5.09-11.368-11.369-11.368-6.278 0-11.368 5.09-11.368 11.368 0 6.279 5.09 11.369 11.368 11.369z" fill="#50E6FF"/></svg>
